X:194
T:Cazadero
C:Thile
N:TablEdited by Jason Phelps
L:1/8
Q:1/4=215
M:4/4
K:E
GF |: EB, EF GB ed | cB cd ef ec | Bc BA GF EG | EF FE DE FG | EB, GE BG ed | 
cB cd ef ec | (3BcB Gc BG FG |1 E2 EF EB, GF :|2 E2 EF GB cB |: e3g fe cd | eB de cB GB | 
e2 eg fe cB | cf2c f2 (3Bcd | e2 eg fe cd | (3efe dB cB GE | F2 FG FE CB, |1 CE2F E2 (3Bcd :|2 CE2F E2 GF | 
|: EB, CC C2 gf | ec (3ccc dB (3BBB | c2 cB cB GE | AF GE FA GF | EB, CC C2 gf | 
ec (3ccc dB (3BBB | cB cd ec BA |1 GE FD E2 GF :|2 GE FD E4 | g4 f2 {g}f2 | e6 cB | 
g4 fg f2 | e8 | e4 d4 | c7/1B | cd cB G2 GE | F2 FG FE CB, | E2 g3{g}f3 | e6 cB | 
g2 b3b {g}f2 | e8 | e4 d4 | c7/1B | c2 cd cB GE | F2 FG FE CB, | 
 

